assets/img/braze_icons/arrow-circle-left.svg

<svg fill="none" height="24" viewBox="0 0 24 24" width="24" xmlns="http://www.w3.org/2000/svg"><path clip-rule="evenodd" d="m23 12c0-6.07513-4.9249-11-11-11-6.07513 0-11 4.92487-11 11 0 6.0751 4.92487 11 11 11 6.0751 0 11-4.9249 11-11zm-6 0c0 .5523-.4477 1-1 1h-5.5858l2.2929 2.2929c.3905.3905.3905 1.0237 0 1.4142s-1.0237.3905-1.4142 0l-4.00001-4c-.39052-.3905-.39052-1.0237 0-1.4142l4.00001-4.00001c.3905-.39052 1.0237-.39052 1.4142 0 .3905.39053.3905 1.02369 0 1.41422l-2.2929 2.29289h5.5858c.5523 0 1 .4477 1 1z" fill="#801ed7" fill-rule="evenodd"/></svg>

<svg width="24" height="24" viewBox="0 0 24 24" fill="none" xmlns="http://www.w3.org/2000/svg">
<path fill-rule="evenodd" clip-rule="evenodd" d="M23 12C23 5.92487 18.0751 1 12 1C5.92487 1 1 5.92487 1 12C1 18.0751 5.92487 23 12 23C18.0751 23 23 18.0751 23 12ZM17 12C17 12.5523 16.5523 13 16 13H10.4142L12.7071 15.2929C13.0976 15.6834 13.0976 16.3166 12.7071 16.7071C12.3166 17.0976 11.6834 17.0976 11.2929 16.7071L7.29289 12.7071C6.90237 12.3166 6.90237 11.6834 7.29289 11.2929L11.2929 7.29289C11.6834 6.90237 12.3166 6.90237 12.7071 7.29289C13.0976 7.68342 13.0976 8.31658 12.7071 8.70711L10.4142 11H16C16.5523 11 17 11.4477 17 12Z" fill="#801ED7"/>
</svg>
